src/assets/icons/fi_heart_grey.svg

<svg fill="none" height="24" viewBox="0 0 24 24" width="24" xmlns="http://www.w3.org/2000/svg"><path d="m20.84 4.60987c-.5108-.51099-1.1172-.91635-1.7846-1.19291-.6675-.27657-1.3829-.41891-2.1054-.41891s-1.4379.14234-2.1054.41891c-.6674.27656-1.2738.68192-1.7846 1.19291l-1.06 1.06-1.06-1.06c-1.0317-1.03169-2.43097-1.61129-3.89-1.61129-1.45904 0-2.85831.5796-3.89 1.61129-1.0317 1.03169-1.61129 2.43097-1.61129 3.89 0 1.45904.57959 2.85833 1.61129 3.89003l1.06 1.06 7.78 7.78 7.78-7.78 1.06-1.06c.511-.5108.9163-1.1172 1.1929-1.7847.2766-.66743.4189-1.38284.4189-2.10533s-.1423-1.43789-.4189-2.10535-.6819-1.27389-1.1929-1.78465z" stroke="#8a8a8a" stroke-linecap="round" stroke-linejoin="round" stroke-width="2"/></svg>

<svg width="24" height="24" viewBox="0 0 24 24" fill="none" xmlns="http://www.w3.org/2000/svg">
<path d="M20.84 4.60987C20.3292 4.09888 19.7228 3.69352 19.0554 3.41696C18.3879 3.14039 17.6725 2.99805 16.95 2.99805C16.2275 2.99805 15.5121 3.14039 14.8446 3.41696C14.1772 3.69352 13.5708 4.09888 13.06 4.60987L12 5.66987L10.94 4.60987C9.9083 3.57818 8.50903 2.99858 7.05 2.99858C5.59096 2.99858 4.19169 3.57818 3.16 4.60987C2.1283 5.64156 1.54871 7.04084 1.54871 8.49987C1.54871 9.95891 2.1283 11.3582 3.16 12.3899L4.22 13.4499L12 21.2299L19.78 13.4499L20.84 12.3899C21.351 11.8791 21.7563 11.2727 22.0329 10.6052C22.3095 9.93777 22.4518 9.22236 22.4518 8.49987C22.4518 7.77738 22.3095 7.06198 22.0329 6.39452C21.7563 5.72706 21.351 5.12063 20.84 4.60987V4.60987Z" stroke="#8A8A8A" stroke-width="2" stroke-linecap="round" stroke-linejoin="round"/>
</svg>
